X:3
T:Way\~nu
R:waynu
O:Peru?
Z:id:hn-waynu-3
M:2/4
L:1/8
Q:1/4=90
K:Em
"C"(3gfe "G"d/dB/ | "G"de/d/ "G"B>A | "G"(3GAB "G"B/BA/ |1 "G"Bd "G"B2 :|
[2 "G"Bd "G"B>g |: "G"ga/b/ "G"b/ag/ | "D"a/g/a/b/ "C"g>e | "C"(3ege "Em"e/dB/ |
"D"de "G"g>g | "G"ga/b/ "G"b/ag/ | "D"a/g/a/b/ "C"g>e | "C"eg/e/ "Em"e/dB/ |
"Bm"de "Em"e2 :||: "G"b/b/a/b/ "C"a/g/e/g/ | "D"f/af/ "G"g2 |
"G"b/b/a/b/ "Am"a/g/e/g/ | "Bm"f/ag/ "Em"e2 :||: "Bm"B/d/f/a/ "C"ge/g/ |
"D"f/af/ "G"g2 | "Bm"B/d/f/a/ "C"ge/g/ | "Bm"f/ag/ "Em"e2 :|

